X:1
T:G Major Anonymous, from the French Psalter, 1551 Harmonized by Thomas Ravenscroft, 1621
T:William Whittingham, 1560 10 10. 10 10. 10
T:Psalm 124 No copyright. Transcribed from The Whole Booke of Psalmes, 1621.
%%score [ ( 1 2 ) ( 3 4 ) ]
L:1/8
M:14/4
K:G
V:1 treble nm="Soprano\nAlto" snm="S.\nA."
V:2 treble 
V:3 bass nm="Tenor\nBass" snm="T.\nB."
V:4 bass 
V:1
 G4 A2 B2 c4 B4 A2 G2 G2 F2 G4 || B4 c2 d2 e4 d4 c2 B2 A2 G2 F4 || D4 G2 G2 F4 G4 A2 c2 B2 A2 B4 || %3
 d4 d2 c2 B4 A4 B2 d2 d2 ^c2 d4 || B4 A2 G2 F4 G4 A2 c2 B2 A2 G8 |] %5
V:2
 z2 D2 C2 D2 E4 G2 D4 B,2 E2 D2 D4 || z2 D2 E2 F2 G4 G3 F E2 D2 C2 B,C D4 || %2
 A,2 D4 B,2 D4 z2 D2 C2 E2 D3 C B,4 || z2 G2 F2 E2 D4 z2 D2 D3 D E2 E2 A,4 || %4
 D4 C2 B,2 D4 z2 B,2 D2 E2 D3 C B,8 |] %5
V:3
"^1. Now   Israel may   say, and that truly,     If that the Lord had not our  cause  maintained,""^2. Then long ago they had devoured us all,  And swallowed quick, for ought that we could deem;""^3. The raging streams most proud in roaring noise, Had long ago o'erwhelmed us in the deep;""^4. E'en as a bird from fowler's gin or pen  Escapes        away,   right       so it fares with us;" B,4 A,2 G,2 A,4 (D,3 E,) F,2 G,2 A,2 A,2 B,4 || %1
 z2 G,2 G,>(A, B,2) C4 B,4 A,2 G,2 E,2 E,2 A,4 || %2
"^1. If   that  the  Lord  had  not  our  right  sustained,      When  all  the world against   us     furiously""^2. Such was their rage,        as we might well esteem;      And as the floods with mighty force do fall,""^3. Prais - ed  be  God,  which  doth  us  safely  keep    From bloody teeth, and their most cruel voice""^4. Broke are  the nets,  and we  es - cap - ed   thus.  God that made heav'n and earth is our help then," F,4 B,3 A,/G,/ A,4 B,4 A,2 A, G,2 (F,/E,/ F,2) G,4 || %3
 B,4 B,2 G,2 G,4 F,4 G,2 F,2 B,2 A,G, F,4 || %4
"^1. Made  their  uproars,  and  said,  we  should  all  die.""^2. So had they now our lives e'en brought to thrall.""^3. Which as a   prey to      eat  us      would    rejoice.""^4. His  name hath  saved   us from these wicked   men.""^________________________\nEdited by B. C. Johnston, 2015.  \n   1. All notes half value of original.\n   2. Converted to two staffs: Soprano = \nTenor\n in original, moved up one octave; Alto = \nMedius\n; Tenor = \nCantus\n, down one\n       octave; Bass = \nBassus\n.\n   3. Whole moved down from C major to G major." z2 G,2 E,2 E,2 A,4 G,4 F,A,>(G, G,2) F,/E,/ F,2 G,8 |] %5
V:4
 z2 G,,2 C,2 B,,2 A,,4 G,,4 D,2 E,2 C,2 D,2 G,,4 || G,,4 E,2 D,2 C,4 G,,4 A,,2 B,,2 C,2 E,2 D,4 || %2
 z2 D,2 B,,2 E,2 D,4 z2 G,,2 C,2 C,2 D,2 D,2 G,,4 || G,,4 B,,2 C,2 G,,4 D,4 G,2 F,2 E,2 E,2 D,4 || %4
 G,,4 C,2 E,2 D,4 E,4 D,2 C,2 D,2 D,2 G,,8 |] %5

